!!!OTL: 726. Die Budringliche. / [Skandalscene vor der Wohnung des Geliebten.]
!!!ARE: Europa, Mitteleuropa, Deutschland, Hessen, Wetterau; Taunus
!!!SCT: E0726
!!!TXL: @@DE
!!!YEM: Copyright 1995, estate of Helmut Schaffrath.
**kern	**text
*ICvox	*
*M2/2	*
*met(c)	*
*k[b-]	*
*F:	*
!LO:TX:a:t=Aus dem Taunus u. der Wetterau.	!
{8fL	1._Jn
8aJ	.
=1	=1
4.cc	Stük-
8dd	-ke
8cc	möcht
8dd	ich
8cc	mich
8b-	ʒer-
=2	=2
4b-	-rei-
4a	-ßen,
4r}	.
{4f	ins
=3	=3
4dd	Waſ-
4dd	-ſer
(4ff	möcht
8ee)	.
8dd	ich
=4	=4
4dd	ſpringen,
4cc	.
4r}	.
{8fL	1._Jn
8aJ	.
=5	=5
4.cc	Stük-
8dd	-ke
8cc	möcht
8dd	ich
8cc	mich
8b-	ʒer-
=6	=6
4b-	-rei-
4a	-ßen,
4r}	.
{4f	ins
=7	=7
4dd	Waſ-
4dd	-ſer
(4ff	möcht
8ee)	.
8dd	ich
=8	=8
4dd	ſpringen,
4cc	.
4r}	.
{4cc	die-
=9	=9
4ff	-weil
4ee	mein
4dd	Schatʒ
4cc	ein
=10	=10
4.dd	And-
8cc	-re
4b-}	liebt,
{4a	möcht
=11	=11
4g	ich
4dd	mich
4.cc	ſelbſt
8b-	um-
=12	=12
4b-/	-brin-
4a	-gen!
4r}	.
{4cc	die-
=13	=13
4ff	-weil
4ee	mein
4dd	Schatʒ
4cc	ein
=14	=14
4.dd	And-
8cc	-re
4b-}	liebt,
{4a	möcht
=15	=15
4g	ich
4dd	mich
4.cc	ſelbſt
8b-	um-
=16	=16
4b-/	-brin-
4a	-gen!
4r}	.
==	==
!!!AGN: Liebes - Lied, Leid, Klage, Zank
!!!ONB: ESAC (Essen Associative Code) Database: ERK2
!!!AMT: simple quadruple
!!!AIN: vox
!!!EED: Helmut Schaffrath
!!!EEV: 1.0
!!!GTL: Liebeslieder [Neuere (aus dem 18. bis 19. Jahrh.) - Liebesleid] 678-740
!!!URL-scan: https://rosdok.uni-rostock.de/mcrviewer/recordIdentifier/rosdok_ppn745177662/iview2/phys_0531.iview2?x=145.53156273434274&y=2150.336163531756&scale=0.7029437510502773&rotation=0&layout=singlePageLayout
!!!ENC: Anna Maria Matuszewska
!!!EEV: 2024/12/16
*-	*-
